src/assets/img/custom-paperwallet/icon-fit-to-width.svg

<?xml version="1.0" encoding="UTF-8"?>
<svg width="16px" height="16px" viewBox="0 0 16 16" version="1.1" xmlns="http://www.w3.org/2000/svg" xmlns:xlink="http://www.w3.org/1999/xlink">
    <!-- Generator: Sketch 61.2 (89653) - https://sketch.com -->
    <title>icon-fit-to-width</title>
    <desc>Created with Sketch.</desc>
    <g id="icon-fit-to-width" stroke="none" stroke-width="1" fill="none" fill-rule="evenodd">
        <path d="M15,0 C15.5522847,-1.01453063e-16 16,0.44771525 16,1 L16,15 C16,15.5522847 15.5522847,16 15,16 L1,16 C0.44771525,16 6.76353751e-17,15.5522847 0,15 L0,1 C-6.76353751e-17,0.44771525 0.44771525,1.01453063e-16 1,0 L15,0 Z M14.75,1.25 L1.25,1.25 L1.25,14.75 L14.75,14.75 L14.75,1.25 Z M5.3,5.1 C5.42590292,5.19442719 5.5,5.34262135 5.5,5.5 L5.5,10.5 C5.5,10.7761424 5.27614237,11 5,11 C4.84262135,11 4.69442719,10.9259029 4.6,10.8 L2.725,8.3 C2.59166667,8.12222222 2.59166667,7.87777778 2.725,7.7 L4.6,5.2 C4.76568542,4.9790861 5.0790861,4.93431458 5.3,5.1 Z M10.7,5.1 C10.9209139,4.93431458 11.2343146,4.9790861 11.4,5.2 L11.4,5.2 L13.275,7.7 C13.4083333,7.87777778 13.4083333,8.12222222 13.275,8.3 L13.275,8.3 L11.4,10.8 C11.3055728,10.9259029 11.1573787,11 11,11 C10.7238576,11 10.5,10.7761424 10.5,10.5 L10.5,10.5 L10.5,5.5 C10.5,5.34262135 10.5740971,5.19442719 10.7,5.1 Z" id="Combined-Shape" fill="#FFFFFF"></path>
    </g>
</svg>

<svg xmlns="http://www.w3.org/2000/svg" width="16" height="16"><path d="M15 0a1 1 0 0 1 1 1v14a1 1 0 0 1-1 1H1a1 1 0 0 1-1-1V1a1 1 0 0 1 1-1h14zm-.25 1.25H1.25v13.5h13.5V1.25zM5.3 5.1a.5.5 0 0 1 .2.4v5a.5.5 0 0 1-.9.3L2.725 8.3a.5.5 0 0 1 0-.6L4.6 5.2a.5.5 0 0 1 .7-.1zm5.4 0a.5.5 0 0 1 .7.1l1.875 2.5a.5.5 0 0 1 0 .6L11.4 10.8a.5.5 0 0 1-.9-.3v-5a.5.5 0 0 1 .2-.4z" fill="#fff" fill-rule="evenodd"/></svg>
